X:604
T:Blast of Wind, A
O:england
M:9/8
L:1/8
R:slip jig
K:D
~d3 dAG FED|~d3 dAF GAB|ABc dAG FGA|~=c3 E2F GFE:|
D2g fdf ecA|d2g fdf gfe|d2g fdf eAB|~=c3 E2F GFE|
D2g fdf ecA|d2g fdf efg|afa gec dAB|~=c3 E2F GFE||


